X: 31615
T: Panenka Penalty, The
R: three-two
M: 3/2
K: Emixolydian
|:G2 ED B,2 E2 G2 E2|F2 D2 A,B,DE FGAF|
G2 ED B,2 E2 G2 A2|1 B2 e2 e2 ^d2 e=dBA:|2 B2 e2 e2 ^d2 e3 f||
|:gagf g2 e2 B2 c2|d3 e dcBA B2 e2|
gagf g2 e2 B2 ^d2|1 e2 e2 B=dfd e2 z2:|2 e2 e2 =dBAG E4||

